X: 30922
T: Over The Moor To Maggie
R: reel
M: 4/4
K: Gmajor
|:(3DEF|G3A BABd|efge dBAG|EAAG ABAG|EAAG AcBA|
GFGA BABd|efge dBAG|EGGF GBAG|EDEF G2:|
|:ga|b3g a3f|g3e d2 Bd|eaag abag|eaag a2 ga|
b3g a3f|g3e d2 Bd|eggf gbag|edef g2:|
|:cd|e3c d3B|c2cA B2 AG|EAAG ABAG|EAAG ABcd|
e3c d2dB|c2cA B2 AG|EGGF GBAG|EDEF G2:|

